icons/general-link-filled.svg

<svg viewBox="0 0 24 24"><path fill="currentColor" fill-rule="evenodd" d="M18 2.4a3.6 3.6 0 0 1 3.6 3.6v12a3.6 3.6 0 0 1-3.6 3.6h-12a3.6 3.6 0 0 1-3.6-3.6v-12a3.6 3.6 0 0 1 3.6-3.6zm-9 5.1a4.5 4.5 0 0 0-4.5 4.6 5 5 0 0 0 1.3 3.2 5 5 0 0 0 3.2 1.4h1.5a1 1 0 0 0 0-2h-1.5a3 3 0 0 1-1.8-.8 3 3 0 0 1-.7-1.8 2.5 2.5 0 0 1 2.5-2.6h1.5a1 1 0 1 0 0-2zm4.7 0a1 1 0 1 0 0 2h1.5q1 0 1.8.8a3 3 0 0 1 .7 1.8v0a2.5 2.5 0 0 1-2.5 2.6h-1.5a1 1 0 1 0 0 2h1.5a4.5 4.5 0 0 0 4.5-4.6 5 5 0 0 0-1.3-3.2 5 5 0 0 0-3.2-1.4zm-4.3 5.6h5.5a1 1 0 0 0 0-2h-5.5a1 1 0 1 0 0 2Z" clip-rule="evenodd"/></svg>

<svg viewBox="0 0 24 24"><path fill="currentColor" fill-rule="evenodd" d="M18 2.4A3.6 3.6 0 0 1 21.6 6v12a3.6 3.6 0 0 1-3.6 3.6H6A3.6 3.6 0 0 1 2.4 18V6A3.6 3.6 0 0 1 6 2.4zM9 7.5a4.5 4.5 0 0 0-4.5 4.6 5 5 0 0 0 1.3 3.2A5 5 0 0 0 9 16.7h1.5a1 1 0 0 0 0-2H9a3 3 0 0 1-1.8-.8 3 3 0 0 1-.7-1.8A2.5 2.5 0 0 1 9 9.5h1.5a1 1 0 1 0 0-2zm4.7 0a1 1 0 1 0 0 2h1.5q1 0 1.8.8a3 3 0 0 1 .7 1.8 2.5 2.5 0 0 1-2.5 2.6h-1.5a1 1 0 1 0 0 2h1.5a4.5 4.5 0 0 0 4.5-4.6A5 5 0 0 0 18.4 9a5 5 0 0 0-3.2-1.4zm-4.3 5.6h5.5a1 1 0 0 0 0-2H9.4a1 1 0 1 0 0 2" clip-rule="evenodd"/></svg>
